svg/fluentui-system-icons/ic_fluent_database_arrow_right_32_filled.svg

<svg width="32" height="32" viewBox="0 0 32 32" fill="none" xmlns="http://www.w3.org/2000/svg">
<path d="M16 14C19.2559 14 22.3003 13.4042 24.6058 12.3563C25.429 11.9821 26.2738 11.4913 27 10.8764V15.2059C25.9241 14.7513 24.7414 14.5 23.5 14.5C18.5294 14.5 14.5 18.5294 14.5 23.5C14.5 26.0389 15.5513 28.3322 17.2423 29.9685C16.8345 29.9893 16.42 30 16 30C9.92487 30 5 27.7614 5 25V10.8764C5.72619 11.4913 6.57104 11.9821 7.39422 12.3563C9.69966 13.4042 12.7441 14 16 14ZM5 7C5 4.23858 9.92487 2 16 2C22.0751 2 27 4.23858 27 7C27 9.76142 22.0751 12 16 12C9.92487 12 5 9.76142 5 7ZM31 23.5C31 19.3579 27.6421 16 23.5 16C19.3579 16 16 19.3579 16 23.5C16 27.6421 19.3579 31 23.5 31C27.6421 31 31 27.6421 31 23.5ZM18.75 22.5H26.4393L23.7197 19.7803C23.4268 19.4874 23.4268 19.0126 23.7197 18.7197C24.0126 18.4268 24.4874 18.4268 24.7803 18.7197L28.7803 22.7197C29.0732 23.0126 29.0732 23.4874 28.7803 23.7803L24.7803 27.7803C24.4874 28.0732 24.0126 28.0732 23.7197 27.7803C23.4268 27.4874 23.4268 27.0126 23.7197 26.7197L26.4393 24H18.75C18.3358 24 18 23.6642 18 23.25C18 22.8358 18.3358 22.5 18.75 22.5Z" fill="#212121"/>
</svg>

<svg xmlns="http://www.w3.org/2000/svg" width="32" height="32"><path d="M16 14c3.256 0 6.3-.596 8.606-1.644.823-.374 1.668-.865 2.394-1.48v4.33a9 9 0 0 0-9.758 14.763c-.408.02-.822.031-1.242.031-6.075 0-11-2.239-11-5V10.876c.726.615 1.571 1.106 2.394 1.48C9.7 13.404 12.744 14 16 14ZM5 7c0-2.761 4.925-5 11-5s11 2.239 11 5-4.925 5-11 5S5 9.761 5 7Zm26 16.5a7.5 7.5 0 1 0-15 0 7.5 7.5 0 0 0 15 0Zm-12.25-1h7.69l-2.72-2.72a.75.75 0 1 1 1.06-1.06l4 4a.75.75 0 0 1 0 1.06l-4 4a.75.75 0 1 1-1.06-1.06L26.44 24h-7.69a.75.75 0 0 1 0-1.5Z"/></svg>
